images/Icon1.svg

<?xml version="1.0" encoding="UTF-8" standalone="no"?>
<svg width="100px" height="100px" viewBox="0 0 100 100" version="1.1" xmlns="http://www.w3.org/2000/svg" xmlns:xlink="http://www.w3.org/1999/xlink" xmlns:sketch="http://www.bohemiancoding.com/sketch/ns">
    <!-- Generator: Sketch 3.4 (15575) - http://www.bohemiancoding.com/sketch -->
    <title>Icon 1</title>
    <desc>Created with Sketch.</desc>
    <defs></defs>
    <g id="Page-1" stroke="none" stroke-width="1" fill="none" fill-rule="evenodd" sketch:type="MSPage">
        <g id="Home-Page" sketch:type="MSArtboardGroup" transform="translate(-345.000000, -1006.000000)">
            <g id="Featured-Icons" sketch:type="MSLayerGroup" transform="translate(-23.000000, 948.000000)">
                <g id="Icon-1" transform="translate(368.000000, 58.000000)" sketch:type="MSShapeGroup">
                    <path d="M51.0791,40.3926 C50.3861,40.5526 48.7661,40.3126 45.1621,36.3826 C41.5531,32.4536 39.8331,34.3836 39.8331,34.3836 C32.1611,40.2366 29.0001,37.9416 29.0001,37.9416 C29.0001,37.9416 36.7181,47.0346 50.9271,42.4486" id="Stroke-1" stroke="#F5861E" stroke-width="2" stroke-linecap="round" stroke-linejoin="round"></path>
                    <path d="M51.1543,40.3926 C51.8493,40.5526 53.4673,40.3126 57.0723,36.3826 C60.6803,32.4536 62.4003,34.3836 62.4003,34.3836 C70.0723,40.2366 73.2343,37.9416 73.2343,37.9416 C73.2343,37.9416 65.5163,47.0346 51.3063,42.4486" id="Stroke-3" stroke="#F5861E" stroke-width="2" stroke-linecap="round" stroke-linejoin="round"></path>
                    <path d="M54.9649,30.8116 C54.9649,32.9136 53.2599,34.6206 51.1539,34.6206 C49.0519,34.6206 47.3439,32.9136 47.3439,30.8116 C47.3439,28.7066 49.0519,26.9996 51.1539,26.9996 C53.2599,26.9996 54.9649,28.7066 54.9649,30.8116 L54.9649,30.8116 Z" id="Stroke-5" stroke="#F5861E" stroke-width="2" stroke-linecap="round" stroke-linejoin="round"></path>
                    <path d="M51.1543,68.7627 L51.1543,72.9997" id="Stroke-7" stroke="#F5861E" stroke-width="2" stroke-linecap="round" stroke-linejoin="round"></path>
                    <path d="M51.1543,34.6202 L51.1543,50.3342" id="Stroke-9" stroke="#F5861E" stroke-width="2" stroke-linecap="round" stroke-linejoin="round"></path>
                    <path d="M58.9532,47.5137 C61.3572,47.5137 64.6472,47.5807 65.7092,49.1547 C66.5702,50.4467 65.9232,51.9607 64.5932,53.0167 C63.1112,54.1907 59.9532,54.8117 57.7292,55.2817 C54.9282,55.8757 52.1042,56.1957 49.4922,56.9347 C44.5542,58.3267 44.3202,62.1777 48.4732,64.2057 C50.9012,65.3917 53.6422,66.0337 56.1942,66.9497 C58.4982,67.7787 58.8462,68.7887 58.7282,70.4217 C58.6772,71.1367 58.1762,71.5607 57.8142,72.2197" id="Stroke-11" stroke="#F5861E" stroke-width="2" stroke-linecap="round" stroke-linejoin="round"></path>
                    <path d="M48.8077,66.1846 C48.0277,66.4326 47.2547,66.6776 46.4977,66.9506 C44.1907,67.7786 43.8447,68.7886 43.9657,70.4216 C44.0157,71.1366 44.5177,71.5606 44.8727,72.2196" id="Stroke-13" stroke="#F5861E" stroke-width="2" stroke-linecap="round" stroke-linejoin="round"></path>
                    <path d="M53.9678,57.1827 C58.1548,58.7447 58.1468,62.2897 54.2188,64.2057" id="Stroke-15" stroke="#F5861E" stroke-width="2" stroke-linecap="round" stroke-linejoin="round"></path>
                    <path d="M43.7383,47.5137 C41.3283,47.5137 38.0463,47.5807 36.9823,49.1547 C36.1193,50.4467 36.7693,51.9607 38.1043,53.0167 C39.5803,54.1907 42.7463,54.8117 44.9623,55.2817 C45.8043,55.4617 46.6563,55.6157 47.4963,55.7637" id="Stroke-17" stroke="#F5861E" stroke-width="2" stroke-linecap="round" stroke-linejoin="round"></path>
                    <path d="M50,0 C22.386,0 0,22.385 0,49.999 L0,50 C0,77.614 22.386,100 50,100 C77.614,100 100,77.614 100,50 L100,49.999 C100,22.385 77.614,0 50,0 Z M97,50 C97,75.916 75.916,97 50,97 C24.084,97 3,75.915 3,49.999 C3,24.084 24.084,3 50,3 C75.916,3 97,24.084 97,50 Z" id="Icon-100x100" fill="#F5861E"></path>
                </g>
            </g>
        </g>
    </g>
</svg>

<svg width="100" height="100" viewBox="0 0 100 100" xmlns="http://www.w3.org/2000/svg"><title>Icon 1</title><g fill="none" fill-rule="evenodd"><path d="M51.08 40.393c-.694.16-2.314-.08-5.918-4.01-3.61-3.93-5.33-2-5.33-2C32.163 40.238 29 37.944 29 37.944s7.718 9.092 21.927 4.506M51.154 40.393c.695.16 2.313-.08 5.918-4.01 3.608-3.93 5.328-2 5.328-2 7.672 5.854 10.834 3.56 10.834 3.56s-7.718 9.092-21.928 4.506M54.965 30.812c0 2.102-1.705 3.81-3.81 3.81-2.103 0-3.81-1.708-3.81-3.81 0-2.105 1.707-3.812 3.81-3.812 2.105 0 3.81 1.707 3.81 3.812zM51.154 68.763V73M51.154 34.62v15.714M58.953 47.514c2.404 0 5.694.067 6.756 1.64.86 1.293.213 2.807-1.117 3.863-1.482 1.174-4.64 1.795-6.864 2.265-2.802.594-5.626.914-8.238 1.653-4.938 1.392-5.172 5.243-1.02 7.27 2.43 1.187 5.17 1.83 7.722 2.745 2.304.83 2.652 1.84 2.534 3.472-.05.715-.552 1.14-.914 1.798M48.808 66.185c-.78.248-1.553.493-2.31.766-2.307.83-2.653 1.84-2.532 3.472.05.715.552 1.14.907 1.798M53.968 57.183c4.187 1.562 4.18 5.107.25 7.023M43.738 47.514c-2.41 0-5.692.067-6.756 1.64-.863 1.293-.213 2.807 1.122 3.863 1.476 1.174 4.642 1.795 6.858 2.265.842.18 1.694.334 2.534.482" stroke="#F5861E" stroke-width="2" stroke-linecap="round" stroke-linejoin="round"/><path d="M50 0C22.386 0 0 22.385 0 50c0 27.614 22.386 50 50 50s50-22.386 50-50c0-27.615-22.386-50-50-50zm47 50c0 25.916-21.084 47-47 47S3 75.915 3 50C3 24.083 24.084 3 50 3s47 21.084 47 47z" fill="#F5861E"/></g></svg>
